build/img/sprites/Briefcase.svg

<svg width="54" height="54" viewBox="0 0 54 54" fill="none" xmlns="http://www.w3.org/2000/svg">
<path d="M45.5625 11.8125H37.125V10.125C37.125 8.78234 36.5916 7.49467 35.6422 6.54527C34.6928 5.59587 33.4052 5.0625 32.0625 5.0625H21.9375C20.5948 5.0625 19.3072 5.59587 18.3578 6.54527C17.4084 7.49467 16.875 8.78234 16.875 10.125V11.8125H8.4375C7.54239 11.8125 6.68395 12.1681 6.05101 12.801C5.41808 13.4339 5.0625 14.2924 5.0625 15.1875V42.1875C5.0625 43.0826 5.41808 43.941 6.05101 44.574C6.68395 45.2069 7.54239 45.5625 8.4375 45.5625H45.5625C46.4576 45.5625 47.316 45.2069 47.949 44.574C48.5819 43.941 48.9375 43.0826 48.9375 42.1875V15.1875C48.9375 14.2924 48.5819 13.4339 47.949 12.801C47.316 12.1681 46.4576 11.8125 45.5625 11.8125ZM20.25 10.125C20.25 9.67745 20.4278 9.24823 20.7443 8.93176C21.0607 8.61529 21.4899 8.4375 21.9375 8.4375H32.0625C32.5101 8.4375 32.9393 8.61529 33.2557 8.93176C33.5722 9.24823 33.75 9.67745 33.75 10.125V11.8125H20.25V10.125ZM45.5625 15.1875V23.9646C39.8667 27.0649 33.4849 28.6887 27 28.6875C20.5154 28.6887 14.1337 27.0657 8.4375 23.9667V15.1875H45.5625ZM45.5625 42.1875H8.4375V27.7678C14.217 30.5948 20.5661 32.0637 27 32.0625C33.434 32.0626 39.783 30.593 45.5625 27.7657V42.1875ZM21.9375 23.625C21.9375 23.1774 22.1153 22.7482 22.4318 22.4318C22.7482 22.1153 23.1774 21.9375 23.625 21.9375H30.375C30.8226 21.9375 31.2518 22.1153 31.5682 22.4318C31.8847 22.7482 32.0625 23.1774 32.0625 23.625C32.0625 24.0726 31.8847 24.5018 31.5682 24.8182C31.2518 25.1347 30.8226 25.3125 30.375 25.3125H23.625C23.1774 25.3125 22.7482 25.1347 22.4318 24.8182C22.1153 24.5018 21.9375 24.0726 21.9375 23.625Z" fill="#78213A"/>
</svg>

<svg width="54" height="54" viewBox="0 0 54 54" fill="none" xmlns="http://www.w3.org/2000/svg"><path d="M45.563 11.813h-8.438v-1.688a5.063 5.063 0 00-5.063-5.063H21.938a5.062 5.062 0 00-5.063 5.063v1.688H8.437a3.375 3.375 0 00-3.374 3.374v27a3.375 3.375 0 003.375 3.376h37.124a3.375 3.375 0 003.376-3.376v-27a3.375 3.375 0 00-3.376-3.374zM20.25 10.124a1.687 1.687 0 011.688-1.688h10.125a1.687 1.687 0 011.687 1.688v1.688h-13.5v-1.688zm25.313 5.063v8.777A38.812 38.812 0 0127 28.688a38.827 38.827 0 01-18.563-4.721v-8.78h37.126zm0 27H8.437v-14.42A42.228 42.228 0 0027 32.062a42.24 42.24 0 0018.563-4.296v14.422zM21.936 23.625a1.687 1.687 0 011.688-1.688h6.75a1.687 1.687 0 110 3.375h-6.75a1.687 1.687 0 01-1.688-1.687z" fill="#78213A"/></svg>
